X:248
T:Addie Harper's Jig
C:Joe Buchanan's Scottish Tome - Page 301.3
I:301 3
Z:Carl Allison
R:Jig
L:1/8
M:6/8
K:D
"A7"F/E/ | "D"DB,A, A,B,D | "D"FEF "Bm"AFA | "G"BAB "Bm"dBA | "Em"FED "A7"EFE |
"D"DB,A, A,B,D | "D"FEF "Bm"AFA | "G"BAB d2 "A7"A | "G"FDD "D"D2 :|
"A7"A | "G"B2 B Bcd | "D"ABA AFE | "Bm"F2 F FED | "D"DEF "F#m"AFA |
"G"B2 B Bcd | "D"ABA "A7"AFE | "D"DFA "A7"d2 A | "G"FDD "D"D2 :|%
%
W:Errata: Changed the lead-in notes to 16th notes.

